X:1
T:Schneeflöckchen Weißröckchen
L:1/8
M:3/4
K:C
V:1 treble nm="Stimme" snm="St."
V:1
 (EF) |"C" G2 G2 A2 |"G" D2 D2 (DE) |"G" F2 F2 G2 |"C" E4 (EF) |"C" G2 G2 c2 |"F4" B2 A2 (GF) | %7
w: Schnee _|flöck- chen, Weiß-|röck- chen wann _|kommst du ge-|schneit, du _|kommst aus den|Wol- ken dein _|
"C" E2 F2"G" D2 |"C" C4 |] %9
w: Weg ist so|weit.|

